public/build/img/Iconos/flecha.svg

<?xml version="1.0" encoding="UTF-8"?>
<svg width="500px" height="500px" viewBox="0 0 500 500" version="1.1" xmlns="http://www.w3.org/2000/svg" xmlns:xlink="http://www.w3.org/1999/xlink">
    <title>angle-down</title>
    <g id="angle-down" stroke="none" stroke-width="1" fill="none" fill-rule="evenodd">
        <path d="M33.1650874,133.072181 C43.9430028,122.416902 61.3504909,122.310349 72.2609978,132.752523 L72.589617,133.072181 L250,308.463909 L427.410383,133.072181 C438.188298,122.416902 455.595787,122.310349 466.506293,132.752523 L466.834913,133.072181 C477.612828,143.727461 477.720607,160.936879 467.15825,171.723241 L466.834913,172.048121 L269.712265,366.927819 C258.934349,377.583098 241.526861,377.689651 230.616354,367.247477 L230.287735,366.927819 L33.1650874,172.048121 C22.2783042,161.285212 22.2783042,143.83509 33.1650874,133.072181 Z" id="Shape" fill="#000000" fill-rule="nonzero"></path>
    </g>
</svg>

<svg width="500" height="500" xmlns="http://www.w3.org/2000/svg"><path d="M33.165 133.072c10.778-10.655 28.185-10.762 39.096-.32l.329.32L250 308.464l177.41-175.392c10.778-10.655 28.186-10.762 39.096-.32l.329.32a27.337 27.337 0 01.323 38.651l-.323.325-197.123 194.88c-10.778 10.655-28.185 10.762-39.096.32l-.328-.32-197.123-194.88a27.339 27.339 0 010-38.976z"/></svg>
